Newaita/actions/16/news-subscribe.svg

<?xml version="1.0" encoding="UTF-8"?>
<svg xmlns="http://www.w3.org/2000/svg" xmlns:xlink="http://www.w3.org/1999/xlink" width="16pt" height="16pt" viewBox="0 0 16 16" version="1.1">
<g id="surface1">
<path style=" stroke:none;fill-rule:nonzero;fill:rgb(25.882354%,25.882354%,25.882354%);fill-opacity:1;" d="M 1.652344 0.785156 C 1.105469 0.785156 0.660156 1.230469 0.660156 1.777344 L 0.660156 14.347656 C 0.660156 14.898438 1.105469 15.339844 1.652344 15.339844 L 14.222656 15.339844 C 14.773438 15.339844 15.214844 14.898438 15.214844 14.347656 L 15.214844 1.777344 C 15.214844 1.230469 14.773438 0.785156 14.222656 0.785156 Z M 2.316406 1.777344 L 13.5625 1.777344 C 13.925781 1.777344 14.222656 2.074219 14.222656 2.441406 L 14.222656 13.6875 C 14.222656 14.050781 13.925781 14.347656 13.5625 14.347656 L 2.316406 14.347656 C 1.949219 14.347656 1.652344 14.050781 1.652344 13.6875 L 1.652344 2.441406 C 1.652344 2.074219 1.949219 1.777344 2.316406 1.777344 Z M 2.316406 1.777344 "/>
<path style=" stroke:none;fill-rule:nonzero;fill:rgb(25.882354%,25.882354%,25.882354%);fill-opacity:1;" d="M 3.804688 3.433594 L 6.78125 3.433594 C 7.054688 3.433594 7.277344 3.65625 7.277344 3.929688 C 7.277344 4.203125 7.054688 4.425781 6.78125 4.425781 L 3.804688 4.425781 C 3.53125 4.425781 3.308594 4.203125 3.308594 3.929688 C 3.308594 3.65625 3.53125 3.433594 3.804688 3.433594 Z M 3.804688 3.433594 "/>
<path style=" stroke:none;fill-rule:nonzero;fill:rgb(25.882354%,25.882354%,25.882354%);fill-opacity:1;" d="M 3.804688 6.078125 L 6.78125 6.078125 C 7.054688 6.078125 7.277344 6.300781 7.277344 6.574219 C 7.277344 6.847656 7.054688 7.070312 6.78125 7.070312 L 3.804688 7.070312 C 3.53125 7.070312 3.308594 6.847656 3.308594 6.574219 C 3.308594 6.300781 3.53125 6.078125 3.804688 6.078125 Z M 3.804688 6.078125 "/>
<path style=" stroke:none;fill-rule:nonzero;fill:rgb(25.882354%,25.882354%,25.882354%);fill-opacity:1;" d="M 3.804688 8.726562 L 6.78125 8.726562 C 7.054688 8.726562 7.277344 8.945312 7.277344 9.222656 C 7.277344 9.496094 7.054688 9.71875 6.78125 9.71875 L 3.804688 9.71875 C 3.53125 9.71875 3.308594 9.496094 3.308594 9.222656 C 3.308594 8.945312 3.53125 8.726562 3.804688 8.726562 Z M 3.804688 8.726562 "/>
<path style=" stroke:none;fill-rule:nonzero;fill:rgb(25.882354%,25.882354%,25.882354%);fill-opacity:1;" d="M 3.804688 11.371094 L 6.78125 11.371094 C 7.054688 11.371094 7.277344 11.59375 7.277344 11.867188 C 7.277344 12.140625 7.054688 12.363281 6.78125 12.363281 L 3.804688 12.363281 C 3.53125 12.363281 3.308594 12.140625 3.308594 11.867188 C 3.308594 11.59375 3.53125 11.371094 3.804688 11.371094 Z M 3.804688 11.371094 "/>
<path style=" stroke:none;fill-rule:nonzero;fill:rgb(47.058824%,56.470591%,61.176473%);fill-opacity:1;" d="M 9.097656 3.433594 L 12.074219 3.433594 C 12.347656 3.433594 12.570312 3.65625 12.570312 3.929688 L 12.570312 6.90625 C 12.570312 7.179688 12.347656 7.402344 12.074219 7.402344 L 9.097656 7.402344 C 8.820312 7.402344 8.601562 7.179688 8.601562 6.90625 L 8.601562 3.929688 C 8.601562 3.65625 8.820312 3.433594 9.097656 3.433594 Z M 9.097656 3.433594 "/>
<path style=" stroke:none;fill-rule:nonzero;fill:rgb(47.058824%,56.470591%,61.176473%);fill-opacity:1;" d="M 9.097656 8.726562 L 12.074219 8.726562 C 12.347656 8.726562 12.570312 8.945312 12.570312 9.222656 C 12.570312 9.496094 12.347656 9.71875 12.074219 9.71875 L 9.097656 9.71875 C 8.820312 9.71875 8.601562 9.496094 8.601562 9.222656 C 8.601562 8.945312 8.820312 8.726562 9.097656 8.726562 Z M 9.097656 8.726562 "/>
<path style=" stroke:none;fill-rule:nonzero;fill:rgb(25.882354%,25.882354%,25.882354%);fill-opacity:1;" d="M 9.097656 11.371094 L 12.074219 11.371094 C 12.347656 11.371094 12.570312 11.59375 12.570312 11.867188 C 12.570312 12.140625 12.347656 12.363281 12.074219 12.363281 L 9.097656 12.363281 C 8.820312 12.363281 8.601562 12.140625 8.601562 11.867188 C 8.601562 11.59375 8.820312 11.371094 9.097656 11.371094 Z M 9.097656 11.371094 "/>
</g>
</svg>

<svg xmlns="http://www.w3.org/2000/svg" width="16pt" height="16pt" viewBox="0 0 16 16"><path d="M1.652.785a.994.994 0 0 0-.992.992v12.57c0 .551.445.993.992.993h12.57c.551 0 .993-.442.993-.992V1.778a.991.991 0 0 0-.992-.993zm.664.992h11.246c.364 0 .66.297.66.664v11.246c0 .364-.296.66-.66.66H2.316a.663.663 0 0 1-.664-.66V2.441c0-.367.297-.664.664-.664zm0 0" fill="#424242"/><path d="M3.805 3.434H6.78a.497.497 0 0 1 0 .992H3.805a.497.497 0 0 1 0-.992zm0 0M3.805 6.078H6.78a.497.497 0 0 1 0 .992H3.805a.497.497 0 0 1 0-.992zm0 0M3.805 8.727H6.78a.497.497 0 0 1 0 .992H3.805a.497.497 0 0 1 0-.992zm0 0M3.805 11.371H6.78a.497.497 0 0 1 0 .992H3.805a.497.497 0 0 1 0-.992zm0 0" fill="#424242"/><path d="M9.098 3.434h2.976c.274 0 .496.222.496.496v2.976a.497.497 0 0 1-.496.496H9.098a.494.494 0 0 1-.496-.496V3.93c0-.274.218-.496.496-.496zm0 0M9.098 8.727h2.976a.497.497 0 0 1 0 .992H9.098a.494.494 0 0 1-.496-.496c0-.278.218-.496.496-.496zm0 0" fill="#78909c"/><path d="M9.098 11.371h2.976a.497.497 0 0 1 0 .992H9.098a.494.494 0 0 1-.496-.496c0-.273.218-.496.496-.496zm0 0" fill="#424242"/></svg>
